X:1
T:Hornpipe. Roose.1118
T:Hornpipe. Roose.1118
T:Navvie on the Line,aka. Roose.1118, The
T:James Hill
C:James Hill
L:1/8
Q:1/2=80
M:2/2
K:Bb
V:1 treble 
V:1
 (3edc | B>ba>g f>ed>c | BdFB d2 cB | AcFA c2 BA | BFGA Bcde | f>ba>g f>ed>c | BdFB d2 cB | %7
 ABcd efga | b2 B2 B2 :: (3dcB | AcFA c2 BA | BdFB d2 cB | AcFA c2 BA | BFGA Bcde | f>ba>g f>ed>c | %15
 BdFB d2 cB | ABcd efga | b2 B2 B2 :| %18

